X: 30
T: Smash the Windows
R: jig
M: 6/8
L: 1/8
Z: 2010 John Chambers <jc:trillian.mit.edu>
B: Anonymous manuscript tune book (1800-1840) p.10
F: http://www.asaplive.com/archive/browse_by_collection.asp
N: The asaplive.com web site is complex, and links to its files don't usually work.
K: D
|: D2D F2A | d2f ecA | G2B F2A | E2F GFE |\
   D2D F2A | d2f ecA | faf gec | d6     :|
|: a |\
   a2f d2A | F2a agf | g2e c2A | E2g gfe |\
   f2d g2e | a2f b2g | faf gec | d6     :|


%%sep 5 1 500

